!!! OTL: Literature63
!!! Chapter: 5
!!! Section: II
!!! Page: 359
!!! Mode: 
!!! Encoder: ESM
**kern
*staff1
*I"Piano
=1-
*clefC4
*k[f#]
*G:
*M4/4
2d\
4.B\
8c\
=2
2d\
2G/
=3
8A\L
8B\
8c\
8d\J
4c\
4B\
=4
1A
=5
8d\L
8c\
8d\
8e\J
4d\
4d\
=6
2g\
2d\
=7
4c\
4B\
2A\
=8
1G
=9
8B\L
8A\
8B\
8c\J
4B\
4B\
=10
2A\
2G/
=11
4c\
4B\
4A\
4G/
=12
1F#
=13
!!linebreak:original
8G/L
8F#/
8G/
8A/J
4G/
4G/
=14
2e\
2c#\
=15
4d\
8e\L
8d\J
4.c#\
8d\
=16
1d
==
*-
